**kern	**kern
*staff2	*staff1
*clefF4	*clefG2
*k[b-]	*k[b-]
*M3/4	*M3/4
=-	=-
*	*^
4r	4c	4r
=9	=9	=9
2F	(4f	2A
.	4c)	.
4r	4f	4r
=10	=10	=10
2C	(4g	4e
.	4c)	4r
4r	4g	4r
*	*v	*v
=11	=11
(4F	(4a
4D	4f)
4BB-)	4g 4b-
=12	=12
2C	(4f 4a
.	4e) 4g
4r	4cc
=13	=13
(4A 4f	(4cc
4G 4e	4b-
4F) 4f	4a)
=14	=14
4B-	(4f 4dd
4r	4d) 4b-
4BB-	4B- 4g
=15	=15
*^	*
(4A	4C	(4f
4B-)	4r	4g)
4G	4C	4e'
=16	=16	=16
4A	4F	4f'
4r	4FF	4r
*v	*v	*
*-	*-
